icon-themes/breeze_svg/cmd/32/freeline.svg

<svg viewBox="0 0 32 32" xmlns="http://www.w3.org/2000/svg"><path d="m17.435547 3.953125-13.435547 13.435547v5.658203h5.65625l13.435547-13.4355469zm-.707031 2.1230469 4.242187 4.2421871-7.070312 7.070313-4.244141-4.242188zm-7.7792972 7.7773441 4.2421872 4.242187-1.414062 1.414063-4.2421878-4.242188.7070313-.707031zm-2.1210938 2.121093 4.242187 4.242188-1.414062 1.414062-4.2421875-4.242187zm17.419922 4.525391c-.39248.002-1.43172.06901-3.09375.84375-.51958.24225-.953485.5166-1.546875.84375-.31677.1746-1.45235.7413-1.875.9375-1.23851.5748-1.65007.7197-2.71875 1.125-1.03426.3921-2.007953.736328-3.507813.736328h-7.4999996l-.0058594 3.013672s4.99111.048 8.625-1.3125c.48202-.18045 1.322215-.47655 2.109375-.75 0 0 3.719202 1.144275 6.513672 1.734375 2.28789.618 4.050635.222825 4.921875-.234375 1.25507-.71595 1.871945-2.004685 1.828125-3.234375-.007-.43185-.115815-.787725-.328125-1.265625-.21236-.47805-.516045-1.01415-.984375-1.40625-.72279-.6348-1.08548-.9141-2.4375-1.03125z" fill="#4d4d4d"/></svg>

<svg xmlns="http://www.w3.org/2000/svg" viewBox="0 0 32 32">
 <path 
     style="fill:#4d4d4d" 
     d="M 17.435547 3.953125 L 4 17.388672 L 4 23.046875 L 9.65625 23.046875 L 23.091797 9.6113281 L 17.435547 3.953125 z M 16.728516 6.0761719 L 20.970703 10.318359 L 13.900391 17.388672 L 9.65625 13.146484 L 16.728516 6.0761719 z M 8.9492188 13.853516 L 13.191406 18.095703 L 11.777344 19.509766 L 7.5351562 15.267578 L 8.2421875 14.560547 L 8.9492188 13.853516 z M 6.828125 15.974609 L 11.070312 20.216797 L 9.65625 21.630859 L 5.4140625 17.388672 L 6.828125 15.974609 z M 24.248047 20.5 C 23.855567 20.502 22.816327 20.56901 21.154297 21.34375 C 20.634717 21.586 20.200812 21.86035 19.607422 22.1875 C 19.290652 22.3621 18.155072 22.9288 17.732422 23.125 C 16.493912 23.6998 16.082352 23.8447 15.013672 24.25 C 13.979412 24.6421 13.005719 24.986328 11.505859 24.986328 L 4.0058594 24.986328 L 4 28 C 4 28 8.99111 28.048 12.625 26.6875 C 13.10702 26.50705 13.947215 26.21095 14.734375 25.9375 C 14.734375 25.9375 18.453577 27.081775 21.248047 27.671875 C 23.535937 28.289875 25.298682 27.8947 26.169922 27.4375 C 27.424992 26.72155 28.041867 25.432815 27.998047 24.203125 C 27.991047 23.771275 27.882232 23.4154 27.669922 22.9375 C 27.457562 22.45945 27.153877 21.92335 26.685547 21.53125 C 25.962757 20.89645 25.600067 20.61715 24.248047 20.5 z "
     />
</svg>
